public/static/img/crypto/USD.svg

<svg width="32" height="32" viewBox="0 0 32 32" fill="none" xmlns="http://www.w3.org/2000/svg">
<g clip-path="url(#clip0_696_7302)">
<path d="M31.9714 15.9946C31.9714 24.7875 24.8438 31.915 16.051 31.915C7.25843 31.915 0.130554 24.7875 0.130554 15.9946C0.130554 7.20194 7.25843 0.0742188 16.051 0.0742188C24.8438 0.0742188 31.9714 7.20194 31.9714 15.9946Z" fill="#1BA27A"/>
<path d="M23.5228 8.10205H8.44781V11.7415H14.1656V17.0907H17.805V11.7415H23.5228V8.10205Z" fill="white"/>
<path d="M16.0199 17.6603C11.2899 17.6603 7.45519 16.9117 7.45519 15.9882C7.45519 15.0648 11.2898 14.3161 16.0199 14.3161C20.7498 14.3161 24.5844 15.0648 24.5844 15.9882C24.5844 16.9117 20.7498 17.6603 16.0199 17.6603ZM25.6366 16.2669C25.6366 15.0761 21.3311 14.1108 16.0199 14.1108C10.7088 14.1108 6.40302 15.0761 6.40302 16.2669C6.40302 17.3156 9.74168 18.1893 14.1658 18.3829V26.062H17.8049V18.3859C22.2631 18.1984 25.6366 17.321 25.6366 16.2669Z" fill="white"/>
<g clip-path="url(#clip1_696_7302)">
<path d="M16.0001 0H15.906C7.11534 0 0 7.13416 0 15.906V16.0001H16.0001V0Z" fill="#2F0F7D"/>
<path d="M15.9811 13.6094V16H32C32 15.1906 31.9435 14.3811 31.8306 13.6094H15.9811Z" fill="#DE001A"/>
<path d="M31.2659 11.2188H15.9811V13.6094H31.8118C31.6988 12.7999 31.5106 11.9905 31.2659 11.2188Z" fill="white"/>
<path d="M30.3059 8.82812H15.9811V11.2187H31.2659C31.0212 10.3905 30.6823 9.59989 30.3059 8.82812Z" fill="#DE001A"/>
<path d="M28.8376 6.4375H15.9811V8.8281H30.3059C29.8729 7.98104 29.3835 7.19045 28.8376 6.4375Z" fill="white"/>
<path d="M26.6353 4.04688H15.9811V6.43748H28.8188C28.1788 5.57159 27.4447 4.76217 26.6353 4.04688Z" fill="#DE001A"/>
<path d="M23.0964 1.65674H15.9811V4.04734H26.6353C25.5811 3.10616 24.3764 2.29674 23.0964 1.65674Z" fill="white"/>
<path d="M8.90347 30.3437H23.0965C24.3765 29.7037 25.5624 28.8943 26.6353 27.9531H5.36462C6.41875 28.8943 7.62346 29.7037 8.90347 30.3437Z" fill="#DE001A"/>
<path d="M5.36454 27.9531H26.6353C27.4447 27.2378 28.1788 26.4284 28.8188 25.5625H3.16217C3.821 26.4284 4.55512 27.2378 5.36454 27.9531ZM15.9999 32.0002C18.5411 32.0002 20.9693 31.3978 23.0964 30.3437H8.90338C11.0305 31.3978 13.4587 32.0002 15.9999 32.0002Z" fill="white"/>
<path d="M3.1624 25.5625H28.819C29.3837 24.8095 29.8731 24.0189 30.3061 23.1719H1.69415C2.1271 24.0189 2.61651 24.8095 3.1624 25.5625Z" fill="#DE001A"/>
<path d="M1.69395 23.1719H30.3059C30.6824 22.4001 31.0212 21.6095 31.2659 20.7812H0.733948C0.978655 21.6095 1.31748 22.4001 1.69395 23.1719Z" fill="white"/>
<path d="M0.73396 20.7817H31.2847C31.5294 20.0099 31.7177 19.2194 31.8306 18.3911H0.16925C0.301016 19.2194 0.489252 20.0099 0.73396 20.7817Z" fill="#DE001A"/>
<path d="M31.8306 18.3906C31.9435 17.6188 32 16.8094 32 16H-0.000183105C-0.000183105 16.8094 0.0562876 17.6188 0.169229 18.3906H31.8306Z" fill="white"/>
<path d="M23.0964 1.65648C20.9693 0.602357 18.5411 0 15.9999 0H15.9811V1.65648H23.0964Z" fill="#DE001A"/>
<path d="M2.63512 9.05424L2.35277 9.61895L1.71276 9.71307L2.18335 10.1648L2.07041 10.786L2.63512 10.4848L3.19983 10.786L3.08689 10.1648L3.53866 9.71307L2.89865 9.61895L2.63512 9.05424ZM2.91748 14.1743L2.63512 13.6096L2.35277 14.1743L1.71276 14.2684L2.18335 14.7202L2.07041 15.3413L2.63512 15.0402L3.19983 15.3413L3.08689 14.7202L3.53866 14.2684L2.91748 14.1743ZM4.23513 8.39542L4.79984 8.09424L5.36455 8.39542L5.27043 7.75541L5.7222 7.30364L5.08219 7.22835L4.79984 6.66364L4.51748 7.22835L3.87748 7.32247L4.32925 7.77424L4.23513 8.39542ZM5.7222 11.9907L5.08219 11.8966L4.79984 11.3319L4.51748 11.8966L3.87748 11.9907L4.32925 12.4425L4.21631 13.0637L4.78102 12.7625L5.34573 13.0637L5.27043 12.4425L5.7222 11.9907ZM10.5599 4.36716L10.2775 4.93186L9.63752 5.02598L10.1081 5.47775L9.99516 6.11775L10.5599 5.81658L11.1246 6.11775L11.0116 5.47775L11.4634 5.02598L10.8234 4.93186L10.5599 4.36716ZM9.99516 1.88243L10.5599 1.58126L11.1246 1.88243L11.0116 1.26125L11.4634 0.809487L11.1434 0.753016C10.7669 0.865958 10.3905 1.01655 10.014 1.16714L10.1081 1.26125C10.0893 1.24243 9.99516 1.88243 9.99516 1.88243ZM10.5599 9.05424L10.2775 9.61895L9.63752 9.71307L10.1081 10.1648L9.99516 10.786L10.5599 10.4848L11.1246 10.786L11.0305 10.1648L11.4822 9.71307L10.8422 9.61895L10.5599 9.05424ZM10.8422 14.1743L10.5599 13.6096L10.2775 14.1743L9.63752 14.2684L10.1081 14.7202L9.99516 15.3413L10.5599 15.0402L11.1246 15.3413L11.0116 14.7202L11.4634 14.2684L10.8422 14.1743ZM12.1599 8.39542L12.7246 8.09424L13.2893 8.39542L13.1764 7.75541L13.6281 7.30364L12.9881 7.20953L12.7058 6.64482L12.4234 7.20953L11.7834 7.30364L12.2352 7.75541L12.1599 8.39542ZM12.1599 4.1601L12.7246 3.85892L13.2893 4.1601L13.1764 3.53892L13.6281 3.08715L12.9881 2.99303L12.7058 2.42832L12.4234 2.99303L11.7834 3.08715L12.2352 3.53892L12.1599 4.1601ZM13.6658 11.9907L13.0258 11.8966L12.7434 11.3319L12.4611 11.8966L11.8211 11.9907L12.2728 12.4425L12.1599 13.0637L12.7246 12.7625L13.2893 13.0637L13.1764 12.4425L13.6658 11.9907ZM1.14805 13.0637L1.03511 12.4425L1.48688 11.9907L0.846875 11.8966L0.639815 11.4825C0.508049 11.9531 0.395107 12.4237 0.282166 12.9131L0.545696 12.7625C0.56452 12.7625 1.14805 13.0637 1.14805 13.0637ZM6.64456 4.36716L6.3622 4.93186L5.7222 5.02598L6.17396 5.47775L6.06102 6.11775L6.62573 5.81658L7.19044 6.11775L7.0775 5.47775L7.52927 5.02598L6.88926 4.93186L6.64456 4.36716ZM6.64456 9.05424L6.3622 9.61895L5.7222 9.71307L6.17396 10.1648L6.06102 10.786L6.62573 10.4848L7.19044 10.786L7.11515 10.1648L7.56691 9.71307L6.92691 9.61895L6.64456 9.05424ZM6.92691 14.1743L6.64456 13.6096L6.3622 14.1743L5.7222 14.2684L6.17396 14.7202L6.06102 15.3413L6.62573 15.0402L7.19044 15.3413L7.0775 14.7202L7.52927 14.2684L6.92691 14.1743ZM8.24457 8.39542L8.80927 8.09424L9.37398 8.39542L9.26104 7.75541L9.73163 7.30364L9.09163 7.20953L8.80927 6.64482L8.52692 7.20953L7.90574 7.32247L8.37633 7.77424L8.24457 8.39542ZM8.24457 4.1601L8.80927 3.85892L9.37398 4.1601L9.26104 3.53892L9.73163 3.08715L9.09163 2.99303L8.80927 2.42832L8.52692 2.99303L7.90574 3.08715L8.37633 3.53892L8.24457 4.1601ZM9.75046 11.9907L9.11045 11.8966L8.8281 11.3319L8.54574 11.8966L7.90574 11.9907L8.37633 12.4425L8.26339 13.0637L8.8281 12.7625L9.39281 13.0637L9.27987 12.4425L9.75046 11.9907ZM14.4752 4.36716L14.1928 4.93186L13.5528 5.04481L14.0046 5.49657L13.8917 6.13658L14.4564 5.8354L15.0211 6.13658L14.9081 5.49657L15.3787 5.04481L14.7387 4.95069L14.4752 4.36716ZM14.4752 0.131836L14.1928 0.715369L13.5528 0.809487L14.0046 1.26125L13.9105 1.88243L14.4752 1.58126L15.0399 1.88243L14.927 1.26125L15.3976 0.809487L14.7575 0.715369L14.4752 0.131836ZM14.4752 9.05424L14.1928 9.61895L13.5528 9.71307L14.0046 10.1648L13.8917 10.786L14.4564 10.4848L15.0211 10.786L14.927 10.1648L15.3976 9.71307L14.7575 9.61895L14.4752 9.05424ZM14.7575 14.1743L14.4752 13.6096L14.1928 14.1743L13.5528 14.2684L14.0046 14.7202L13.8917 15.3413L14.4564 15.0402L15.0211 15.3413L14.9081 14.7202L15.3787 14.2684L14.7575 14.1743Z" fill="white"/>
</g>
</g>
<defs>
<clipPath id="clip0_696_7302">
<rect width="32" height="32" fill="white"/>
</clipPath>
<clipPath id="clip1_696_7302">
<rect width="32" height="32" fill="white"/>
</clipPath>
</defs>
</svg>

<svg width="32" height="32" fill="none" xmlns="http://www.w3.org/2000/svg"><g clip-path="url(#a)"><path d="M31.971 15.995c0 8.793-7.127 15.92-15.92 15.92S.131 24.788.131 15.995 7.258.075 16.05.075s15.92 7.127 15.92 15.92Z" fill="#1BA27A"/><path d="M23.523 8.102H8.448v3.64h5.718v5.349h3.639v-5.35h5.718V8.103Z" fill="#fff"/><path d="M16.02 17.66c-4.73 0-8.565-.748-8.565-1.672 0-.923 3.835-1.672 8.565-1.672 4.73 0 8.564.749 8.564 1.672 0 .924-3.834 1.672-8.564 1.672Zm9.617-1.393c0-1.19-4.306-2.156-9.617-2.156-5.311 0-9.617.965-9.617 2.156 0 1.049 3.339 1.922 7.763 2.116v7.679h3.639v-7.676c4.458-.188 7.832-1.065 7.832-2.12Z" fill="#fff"/><g clip-path="url(#b)"><path d="M16 0h-.094C7.116 0 0 7.134 0 15.906V16h16V0Z" fill="#2F0F7D"/><path d="M15.981 13.61V16H32c0-.81-.056-1.619-.17-2.39H15.982Z" fill="#DE001A"/><path d="M31.266 11.219H15.98v2.39h15.83a14.676 14.676 0 0 0-.545-2.39Z" fill="#fff"/><path d="M30.306 8.828H15.98v2.39h15.285c-.245-.828-.584-1.618-.96-2.39Z" fill="#DE001A"/><path d="M28.838 6.438H15.98v2.39h14.325a18.064 18.064 0 0 0-1.468-2.39Z" fill="#fff"/><path d="M26.635 4.047H15.981v2.39H28.82a15.46 15.46 0 0 0-2.184-2.39Z" fill="#DE001A"/><path d="M23.096 1.657h-7.115v2.39h10.654a16.24 16.24 0 0 0-3.539-2.39Z" fill="#fff"/><path d="M8.903 30.344h14.193a16.7 16.7 0 0 0 3.54-2.39H5.364a16.238 16.238 0 0 0 3.538 2.39Z" fill="#DE001A"/><path d="M5.365 27.953h21.27a15.46 15.46 0 0 0 2.184-2.39H3.162a16.59 16.59 0 0 0 2.203 2.39ZM16 32c2.541 0 4.97-.602 7.096-1.656H8.903A16.002 16.002 0 0 0 16 32Z" fill="#fff"/><path d="M3.162 25.563H28.82a16.392 16.392 0 0 0 1.487-2.391H1.694c.433.847.923 1.637 1.468 2.39Z" fill="#DE001A"/><path d="M1.694 23.172h28.612c.376-.772.715-1.563.96-2.39H.734c.245.828.583 1.618.96 2.39Z" fill="#fff"/><path d="M.734 20.782h30.55c.245-.772.434-1.563.547-2.39H.169c.132.827.32 1.618.565 2.39Z" fill="#DE001A"/><path d="M31.83 18.39c.114-.771.17-1.58.17-2.39H0c0 .81.056 1.619.17 2.39h31.66Z" fill="#fff"/><path d="M23.096 1.656A16.001 16.001 0 0 0 16 0h-.019v1.656h7.115Z" fill="#DE001A"/><path d="m2.635 9.054-.282.565-.64.094.47.452-.113.621.565-.301.565.301-.113-.621.452-.452-.64-.094-.264-.565Zm.282 5.12-.282-.564-.282.564-.64.094.47.452-.113.621.565-.3.565.3-.113-.62.452-.453-.622-.094Zm1.318-5.779.565-.3.565.3-.095-.64.452-.451-.64-.076-.282-.564-.283.564-.64.094.452.452-.094.621Zm1.487 3.596-.64-.094-.282-.565-.283.565-.64.094.452.452-.113.62.565-.3.565.3-.076-.62.452-.452Zm4.838-7.624-.283.565-.64.094.471.452-.113.64.565-.301.565.3-.113-.64.451-.451-.64-.094-.263-.565Zm-.565-2.485.565-.3.565.3-.113-.62.451-.453-.32-.056c-.376.113-.753.264-1.129.414l.094.094c-.019-.019-.113.621-.113.621Zm.565 7.172-.283.565-.64.094.471.452-.113.621.565-.301.565.301-.095-.621.452-.452-.64-.094-.282-.565Zm.282 5.12-.282-.564-.283.564-.64.094.471.452-.113.621.565-.3.565.3-.113-.62.451-.453-.62-.094Zm1.318-5.779.565-.3.564.3-.113-.64.452-.451-.64-.094-.282-.565-.283.565-.64.094.452.451-.075.64Zm0-4.235.565-.301.564.301-.113-.621.452-.452-.64-.094-.282-.565-.283.565-.64.094.452.452-.075.621Zm1.506 7.83-.64-.093-.283-.565-.282.565-.64.094.452.452-.113.62.565-.3.564.3-.113-.62.49-.452ZM1.148 13.065l-.113-.621.452-.452-.64-.094-.207-.415c-.132.471-.245.942-.358 1.431l.264-.15c.019 0 .602.3.602.3Zm5.497-8.697-.283.565-.64.094.452.452-.113.64.565-.301.564.3-.113-.64.452-.451-.64-.094-.244-.565Zm0 4.687-.283.565-.64.094.452.452-.113.621.565-.301.564.301-.075-.621.452-.452-.64-.094-.282-.565Zm.282 5.12-.282-.564-.283.564-.64.094.452.452-.113.621.565-.3.564.3-.113-.62.452-.453-.602-.094Zm1.318-5.779.564-.3.565.3-.113-.64.47-.451-.64-.094-.282-.565-.282.565-.621.112.47.452-.131.621Zm0-4.235.564-.301.565.301-.113-.621.47-.452-.64-.094-.282-.565-.282.565-.621.094.47.452-.131.621Zm1.505 7.83-.64-.093-.282-.565-.282.565-.64.094.47.452-.113.62.565-.3.565.3-.113-.62.47-.452Zm4.725-7.623-.282.565-.64.113.452.452-.113.64.564-.302.565.302-.113-.64.47-.452-.64-.094-.263-.584Zm0-4.235-.282.583-.64.094.452.452-.095.621.565-.3.565.3-.113-.62.47-.453-.64-.094-.282-.583Zm0 8.922-.282.565-.64.094.452.452-.113.621.564-.301.565.301-.094-.621.47-.452-.64-.094-.282-.565Zm.283 5.12-.283-.564-.282.564-.64.094.452.452-.113.621.564-.3.565.3-.113-.62.47-.453-.62-.094Z" fill="#fff"/></g></g><defs><clipPath id="a"><path fill="#fff" d="M0 0h32v32H0z"/></clipPath><clipPath id="b"><path fill="#fff" d="M0 0h32v32H0z"/></clipPath></defs></svg>
